X:49
T:Miss Kirsty Jamieson
C:Joe Buchanan's Scottish Tome - Page 201.3
I:201 3
Z:Carl Allison
R:Hornpipe
L:1/8
M:4/4
K:A
e2 | "A"a2 ed c2 BA | "E7"BEGB "A"A2 EC | "D"D2 FA dcBA | "Bm7"G2 "E7"B2 B2 ef |
"A"a2 ed c2 BA | "E7"BEGB "A"A2 BA | "Bm7"GABc "E7"defg | "A"a2 a2 a2 :|
cd | "A"e2 ce "A7"a2 ga | "D"f2 a2 "Bm7"B2>c2 | "B7"^d2 Bd b2 ^ab | "E7"g2 b2 e2 f2 |
"A"e2 ce "A7"a2 ga | "D"f2 a2 "Bm7"B2>A2 | "E7"GABc defg | "A"a2 a2 a2 :|

